svgs/clavepin.svg

<svg xmlns="http://www.w3.org/2000/svg" viewBox="0 0 192 192"><path d="M91.517 34.385c-10.473-.347-20.137 5.271-24.485 14.233-4.142 8.549-2.684 18.575 3.747 25.766l-4.38 9.939 3.097 9.489-6.485 4.841 1.352 4.568-6.313 6.803-.36 8.251-7.443 5.951-3.747 7.72 3.713 9.36 11.498-4.02 26.401-54.362c.223.003.445.003.667 0-2.607-4.265-3.998-9.09-4.038-14.008.031-13.343 9.882-24.888 23.732-27.809a26.025 26.025 0 0 0-7.117-4.535 27.251 27.251 0 0 0-9.839-2.187Z" fill="none" stroke="#000" stroke-width="8" stroke-linecap="round" stroke-linejoin="round"/><path d="M115.129 40.352c-16.779-.004-30.384 12.779-30.388 28.552v.012c.013 11.015 6.765 21.04 17.35 25.765l.479 12.61 8.23 8.717-4.414 8.122 3.815 4.262-3.217 10.148 3.902 8.959-4.86 9.763v9.955l8.812 8.283 10.181-9.553V95.856c12.234-3.964 20.454-14.777 20.481-26.94.003-15.77-13.593-28.558-30.371-28.564Z" fill="none" stroke="#000" stroke-width="8" stroke-linecap="round" stroke-linejoin="round"/><path d="M92.585 32.741c2.803-10.531 13.536-17.432 24.993-16.07 11.457 1.362 20.025 10.556 19.951 21.411-.073 10.855-8.765 19.946-20.239 21.171" fill="none" stroke="#000" stroke-width="8" stroke-linecap="round" stroke-linejoin="round"/><path d="M122.582 60.215c0 3.309-2.853 5.991-6.373 5.991s-6.373-2.682-6.373-5.991c0-3.308 2.853-5.99 6.373-5.99s6.373 2.682 6.373 5.99Zm-33.368-5.782c-2.093-.829-3.391-2.819-3.229-4.948.162-2.129 1.75-3.924 3.946-4.465 2.197-.54 4.516.296 5.767 2.077l-4.426 2.744-2.059 4.592Z" fill="none" stroke="#000" stroke-width="8" stroke-linecap="round" stroke-linejoin="round"/></svg>

<svg
    xmlns="http://www.w3.org/2000/svg"
    viewBox="0 0 192 192"
    id="vector">
    <path
        id="path"
        d="M 91.517 34.385 C 81.044 34.038 71.38 39.656 67.032 48.618 C 62.89 57.167 64.348 67.193 70.779 74.384 L 66.399 84.323 L 69.496 93.812 L 63.011 98.653 L 64.363 103.221 L 58.05 110.024 L 57.69 118.275 L 50.247 124.226 L 46.5 131.946 L 50.213 141.306 L 61.711 137.286 L 88.112 82.924 C 88.335 82.927 88.557 82.927 88.779 82.924 C 86.172 78.659 84.781 73.834 84.741 68.916 C 84.772 55.573 94.623 44.028 108.473 41.107 C 106.386 39.233 103.981 37.7 101.356 36.572 C 98.261 35.242 94.918 34.499 91.517 34.385 Z"
        fill="none"
        stroke="#000000"
        stroke-width="8"
        stroke-linecap="round"
        stroke-linejoin="round"/>
    <path
        id="path_1"
        d="M 115.129 40.352 C 98.35 40.348 84.745 53.131 84.741 68.904 L 84.741 68.916 C 84.754 79.931 91.506 89.956 102.091 94.681 L 102.57 107.291 L 110.8 116.008 L 106.386 124.13 L 110.201 128.392 L 106.984 138.54 L 110.886 147.499 L 106.026 157.262 L 106.026 167.217 L 114.838 175.5 L 125.019 165.947 L 125.019 95.856 C 137.253 91.892 145.473 81.079 145.5 68.916 C 145.503 53.146 131.907 40.358 115.129 40.352 Z"
        fill="none"
        stroke="#000000"
        stroke-width="8"
        stroke-linecap="round"
        stroke-linejoin="round"/>
    <path
        id="path_2"
        d="M 92.585 32.741 C 95.388 22.21 106.121 15.309 117.578 16.671 C 129.035 18.033 137.603 27.227 137.529 38.082 C 137.456 48.937 128.764 58.028 117.29 59.253"
        fill="none"
        stroke="#000000"
        stroke-width="8"
        stroke-linecap="round"
        stroke-linejoin="round"/>
    <path
        id="path_3"
        d="M 122.582 60.215 C 122.582 63.524 119.729 66.206 116.209 66.206 C 112.689 66.206 109.836 63.524 109.836 60.215 C 109.836 56.907 112.689 54.225 116.209 54.225 C 119.729 54.225 122.582 56.907 122.582 60.215 Z M 89.214 54.433 C 87.121 53.604 85.823 51.614 85.985 49.485 C 86.147 47.356 87.735 45.561 89.931 45.02 C 92.128 44.48 94.447 45.316 95.698 47.097 L 91.272 49.841 L 89.213 54.433 Z"
        fill="none"
        stroke="#000000"
        stroke-width="8"
        stroke-linecap="round"
        stroke-linejoin="round"/>
</svg>
